assets/images/close-icon.svg

<svg fill="none" height="24" viewBox="0 0 24 24" width="24" xmlns="http://www.w3.org/2000/svg"><path d="m11.96 0c-6.61001 0-11.96 5.35996-11.96 11.96 0 6.6 5.35999 11.96 11.96 11.96 6.6 0 11.96-5.36 11.96-11.96 0-6.60004-5.36-11.96-11.96-11.96zm4.37 14.64c.23.18.36.49.36.84 0 .33-.13.63-.38.86-.17.21-.47.35-.82.35-.33 0-.63-.13-.86-.38l-2.67-2.66-2.69001 2.67c-.34.42-1.17.5-1.67 0-.24-.23-.36999-.52-.36999-.85 0-.35.13999-.65.39999-.87l2.65001-2.66-2.69-2.67004c-.24-.24-.36-.52997-.36-.83997 0-.35.13999-.64999.39999-.86999.43-.44 1.27-.42 1.67.06l2.66001 2.6399 2.69-2.66993c.43-.47 1.29-.46997 1.71.03003.2.15.33.44999.33.80999 0 .31-.12.59997-.36.83997l-2.69 2.67004 2.69 2.69z" fill="#221714"/></svg>

<svg width="24" height="24" viewBox="0 0 24 24" fill="none" xmlns="http://www.w3.org/2000/svg">
<path d="M11.96 0C5.34999 0 0 5.35996 0 11.96C0 18.56 5.35999 23.92 11.96 23.92C18.56 23.92 23.92 18.56 23.92 11.96C23.92 5.35996 18.56 0 11.96 0ZM16.33 14.64C16.56 14.82 16.69 15.13 16.69 15.48C16.69 15.81 16.56 16.11 16.31 16.34C16.14 16.55 15.84 16.69 15.49 16.69C15.16 16.69 14.86 16.56 14.63 16.31L11.96 13.65L9.26999 16.32C8.92999 16.74 8.09999 16.82 7.59999 16.32C7.35999 16.09 7.23 15.8 7.23 15.47C7.23 15.12 7.36999 14.82 7.62999 14.6L10.28 11.94L7.59 9.26996C7.35 9.02996 7.23 8.73999 7.23 8.42999C7.23 8.07999 7.36999 7.78 7.62999 7.56C8.05999 7.12 8.89999 7.14 9.29999 7.62L11.96 10.2599L14.65 7.58997C15.08 7.11997 15.94 7.12 16.36 7.62C16.56 7.77 16.69 8.06999 16.69 8.42999C16.69 8.73999 16.57 9.02996 16.33 9.26996L13.64 11.94L16.33 14.63V14.64Z" fill="#221714"/>
</svg>
